(Spoilboard-Face)
(Skim 0.2mm off the top of the spoilboard to level it)
(T1  D=25 CR=0 TAPER=2deg - ZMIN=0 - face mill)
G90 G94
G17
G21

(Spoilboard-Face PROVer)
S10000 M3
G54
G0 X260.45 Y0
Z10.2
Z2
G1 Z0 F200
Y157
X250.454
Y0
X240.458
Y157
X230.462
Y0
X220.465
Y157
X210.469
Y0
X200.473
Y157
X190.477
Y0
X180.481
Y157
X170.485
Y0
X160.488
Y157
X150.492
Y0
X140.496
Y157
X130.5
Y0
X120.504
Y157
X110.508
Y0
X100.511
Y157
X90.515
Y0
X80.519
Y157
X70.523
Y0
X60.527
Y157
X50.531
Y0
X40.534
Y157
X30.538
Y0
X20.542
Y157
X10.546
Y0
X0.55
Y157
G0 Z10.2
M5
M30
