(Spoilboard-Engrave)
(Engrave Alignment grid on a spoilboard)
(T1  D=3.175 CR=0 TAPER=20deg - ZMIN=-0.2 - countersink)
G90 G94
G17
G21

(Spoilboard-Engrave)
S10000 M3
G54
G0 X290 Y170
Z10
Z1
G1 Z-0.2 F250
X0 F500
Y0
X290
Y170
Z1
G0 Z5
Y127.5
Z1
G1 Z-0.2 F250
X0 F500
Z1
G0 Z5
Y106.25
Z1
G1 Z-0.2 F250
X290 F500
Z1
G0 Z5
Y85
Z1
G1 Z-0.2 F250
X0 F500
Z1
G0 Z5
Y63.75
Z1
G1 Z-0.2 F250
X290 F500
Z1
G0 Z5
Y42.5
Z1
G1 Z-0.2 F250
X0 F500
Z1
G0 Z5
Y21.25
Z1
G1 Z-0.2 F250
X290 F500
Z1
G0 Z5
X245.385 Y0
Z1
G1 Z-0.2 F250
Y170 F500
Z1
G0 Z5
X223.077
Z1
G1 Z-0.2 F250
Y0 F500
Z1
G0 Z5
X200.769
Z1
G1 Z-0.2 F250
Y170 F500
Z1
G0 Z5
X178.462
Z1
G1 Z-0.2 F250
Y0 F500
Z1
G0 Z5
X156.154
Z1
G1 Z-0.2 F250
Y170 F500
Z1
G0 Z5
X133.846
Z1
G1 Z-0.2 F250
Y0 F500
Z1
G0 Z5
X111.538
Z1
G1 Z-0.2 F250
Y170 F500
Z1
G0 Z5
X89.231
Z1
G1 Z-0.2 F250
Y0 F500
Z1
G0 Z5
X66.923
Z1
G1 Z-0.2 F250
Y170 F500
Z1
G0 Z5
X44.615
Z1
G1 Z-0.2 F250
Y0 F500
Z1
G0 Z5
X22.308
Z1
G1 Z-0.2 F250
Y170 F500
Z1
G0 Z10
M5
M30
