(Spoilboard-Engrave)
(Engrave Alignment grid on a spoilboard)
(T1  D=3.175 CR=0 TAPER=20deg - ZMIN=-0.2 - countersink)
G90 G94
G17
G21

(Spoilboard-Engrave)
S10000 M3
G54
G0 X260.5 Y157
Z10
Z1
G1 Z-0.2 F250
X0 F500
Y0
X260.5
Y157
Z1
G0 Z5
X238.792
Z1
G1 Z-0.2 F250
Y0 F500
Z1
G0 Z5
X217.083
Z1
G1 Z-0.2 F250
Y157 F500
Z1
G0 Z5
X195.375
Z1
G1 Z-0.2 F250
Y0 F500
Z1
G0 Z5
X173.667
Z1
G1 Z-0.2 F250
Y157 F500
Z1
G0 Z5
X151.958
Z1
G1 Z-0.2 F250
Y0 F500
Z1
G0 Z5
X130.25
Z1
G1 Z-0.2 F250
Y157 F500
Z1
G0 Z5
X108.542
Z1
G1 Z-0.2 F250
Y0 F500
Z1
G0 Z5
X86.833
Z1
G1 Z-0.2 F250
Y157 F500
Z1
G0 Z5
X65.125
Z1
G1 Z-0.2 F250
Y0 F500
Z1
G0 Z5
X43.417
Z1
G1 Z-0.2 F250
Y157 F500
Z1
G0 Z5
X21.708
Z1
G1 Z-0.2 F250
Y0 F500
Z1
G0 Z5
X0 Y22.429
Z1
G1 Z-0.2 F250
X260.5 F500
Z1
G0 Z5
Y44.857
Z1
G1 Z-0.2 F250
X0 F500
Z1
G0 Z5
Y67.286
Z1
G1 Z-0.2 F250
X260.5 F500
Z1
G0 Z5
Y89.714
Z1
G1 Z-0.2 F250
X0 F500
Z1
G0 Z5
Y112.143
Z1
G1 Z-0.2 F250
X260.5 F500
Z1
G0 Z5
Y134.571
Z1
G1 Z-0.2 F250
X0 F500
Z1
G0 Z10
M5
M30
