(Spoilboard-Face)
(Skim 0.2mm off the top of the spoilboard to level it)
(T1  D=13 CR=0 TAPER=1deg - ZMIN=0 - face mill)
G90 G94
G17
G21

(Spoilboard-Face PRO)
S10000 M3
G54
G0 X289.975 Y0
Z10.2
Z2
G1 Z0 F250
Y170 F500
X284.976
Y0
X279.977
Y170
X274.978
Y0
X269.978
Y170
X264.979
Y0
X259.98
Y170
X254.981
Y0
X249.982
Y170
X244.983
Y0
X239.984
Y170
X234.984
Y0
X229.985
Y170
X224.986
Y0
X219.987
Y170
X214.988
Y0
X209.989
Y170
X204.99
Y0
X199.991
Y170
X194.991
Y0
X189.992
Y170
X184.993
Y0
X179.994
Y170
X174.995
Y0
X169.996
Y170
X164.997
Y0
X159.997
Y170
X154.998
Y0
X149.999
Y170
X145
Y0
X140.001
Y170
X135.002
Y0
X130.003
Y170
X125.003
Y0
X120.004
Y170
X115.005
Y0
X110.006
Y170
X105.007
Y0
X100.008
Y170
X95.009
Y0
X90.009
Y170
X85.01
Y0
X80.011
Y170
X75.012
Y0
X70.013
Y170
X65.014
Y0
X60.015
Y170
X55.016
Y0
X50.016
Y170
X45.017
Y0
X40.018
Y170
X35.019
Y0
X30.02
Y170
X25.021
Y0
X20.022
Y170
X15.022
Y0
X10.023
Y170
X5.024
Y0
X0.025
Y170
G0 Z10.2
M5
M30
