(Spoilboard-CutSlots)
(Cut 4 slots on the spoilboard)
(T1  D=3.175 CR=0 - ZMIN=-7 - flat end mill)
G90 G94
G17
G21

(Spoilboard-Cut Slots)
S10000 M3
G54
G0 X-24.948 Y-1.488
Z10
Z5
G1 Z2 F500
Z-1
X-24.936 Y-1.484
G3 X-23.913 Y0 I-0.564 J1.484
G1 Y108.412
X-21.087
Y0
G3 X-20.056 Y-1.487 I1.587 J0
G2 X-21.087 Y0 Z-1.009 I0.556 J1.487
G1 Y108.412 Z-1.494
X-23.913 Z-1.506
Y0 Z-1.991
G2 X-24.936 Y-1.484 Z-2 I-1.587 J0
G3 X-23.913 Y0 I-0.564 J1.484
G1 Y108.412
X-21.087
Y0
G3 X-20.056 Y-1.487 I1.587 J0
G2 X-21.087 Y0 Z-2.009 I0.556 J1.487
G1 Y108.412 Z-2.494
X-23.913 Z-2.506
Y0 Z-2.991
G2 X-24.936 Y-1.484 Z-3 I-1.587 J0
G3 X-23.913 Y0 I-0.564 J1.484
G1 Y108.412
X-21.087
Y0
G3 X-20.056 Y-1.487 I1.587 J0
G2 X-21.087 Y0 Z-3.009 I0.556 J1.487
G1 Y108.412 Z-3.494
X-23.913 Z-3.506
Y0 Z-3.991
G2 X-24.936 Y-1.484 Z-4 I-1.587 J0
G3 X-23.913 Y0 I-0.564 J1.484
G1 Y108.412
X-21.087
Y0
G3 X-20.056 Y-1.487 I1.587 J0
G2 X-21.087 Y0 Z-4.009 I0.556 J1.487
G1 Y108.412 Z-4.494
X-23.913 Z-4.506
Y0 Z-4.991
G2 X-24.936 Y-1.484 Z-5 I-1.587 J0
G3 X-23.913 Y0 I-0.564 J1.484
G1 Y108.412
X-21.087
Y0
G3 X-20.056 Y-1.487 I1.587 J0
G2 X-21.087 Y0 Z-5.009 I0.556 J1.487
G1 Y108.412 Z-5.494
X-23.913 Z-5.506
Y0 Z-5.991
G2 X-24.936 Y-1.484 Z-6 I-1.587 J0
G3 X-23.913 Y0 I-0.564 J1.484
G1 Y108.412
X-21.087
Y0
G3 X-20.056 Y-1.487 I1.587 J0
G2 X-21.087 Y0 Z-6.009 I0.556 J1.487
G1 Y108.412 Z-6.494
X-23.913 Z-6.506
Y0 Z-6.991
G2 X-24.936 Y-1.484 Z-7 I-1.587 J0
G3 X-23.913 Y0 I-0.564 J1.484
G1 Y108.412
X-21.087
Y0
G3 X-20.056 Y-1.487 I1.587 J0
G1 X-18.569 Y-2.043
G0 Z5
X20.052 Y-1.488
G1 Z2 F500
Z-1
X20.064 Y-1.484
G3 X21.087 Y0 I-0.564 J1.484
G1 Y108.412
X23.913
Y0
G3 X24.944 Y-1.487 I1.587 J0
G2 X23.913 Y0 Z-1.009 I0.556 J1.487
G1 Y108.412 Z-1.494
X21.087 Z-1.506
Y0 Z-1.991
G2 X20.064 Y-1.484 Z-2 I-1.587 J0
G3 X21.087 Y0 I-0.564 J1.484
G1 Y108.412
X23.913
Y0
G3 X24.944 Y-1.487 I1.587 J0
G2 X23.913 Y0 Z-2.009 I0.556 J1.487
G1 Y108.412 Z-2.494
X21.087 Z-2.506
Y0 Z-2.991
G2 X20.064 Y-1.484 Z-3 I-1.587 J0
G3 X21.087 Y0 I-0.564 J1.484
G1 Y108.412
X23.913
Y0
G3 X24.944 Y-1.487 I1.587 J0
G2 X23.913 Y0 Z-3.009 I0.556 J1.487
G1 Y108.412 Z-3.494
X21.087 Z-3.506
Y0 Z-3.991
G2 X20.064 Y-1.484 Z-4 I-1.587 J0
G3 X21.087 Y0 I-0.564 J1.484
G1 Y108.412
X23.913
Y0
G3 X24.944 Y-1.487 I1.587 J0
G2 X23.913 Y0 Z-4.009 I0.556 J1.487
G1 Y108.412 Z-4.494
X21.087 Z-4.506
Y0 Z-4.991
G2 X20.064 Y-1.484 Z-5 I-1.587 J0
G3 X21.087 Y0 I-0.564 J1.484
G1 Y108.412
X23.913
Y0
G3 X24.944 Y-1.487 I1.587 J0
G2 X23.913 Y0 Z-5.009 I0.556 J1.487
G1 Y108.412 Z-5.494
X21.087 Z-5.506
Y0 Z-5.991
G2 X20.064 Y-1.484 Z-6 I-1.587 J0
G3 X21.087 Y0 I-0.564 J1.484
G1 Y108.412
X23.913
Y0
G3 X24.944 Y-1.487 I1.587 J0
G2 X23.913 Y0 Z-6.009 I0.556 J1.487
G1 Y108.412 Z-6.494
X21.087 Z-6.506
Y0 Z-6.991
G2 X20.064 Y-1.484 Z-7 I-1.587 J0
G3 X21.087 Y0 I-0.564 J1.484
G1 Y108.412
X23.913
Y0
G3 X24.944 Y-1.487 I1.587 J0
G1 X26.431 Y-2.043
G0 Z5
X65.052 Y-1.488
G1 Z2 F500
Z-1
X65.064 Y-1.484
G3 X66.088 Y0 I-0.564 J1.484
G1 Y108.412
X68.912
Y0
G3 X69.944 Y-1.487 I1.588 J0
G2 X68.912 Y0 Z-1.009 I0.556 J1.487
G1 Y108.412 Z-1.494
X66.088 Z-1.506
Y0 Z-1.991
G2 X65.064 Y-1.484 Z-2 I-1.588 J0
G3 X66.088 Y0 I-0.564 J1.484
G1 Y108.412
X68.912
Y0
G3 X69.944 Y-1.487 I1.588 J0
G2 X68.912 Y0 Z-2.009 I0.556 J1.487
G1 Y108.412 Z-2.494
X66.088 Z-2.506
Y0 Z-2.991
G2 X65.064 Y-1.484 Z-3 I-1.588 J0
G3 X66.088 Y0 I-0.564 J1.484
G1 Y108.412
X68.912
Y0
G3 X69.944 Y-1.487 I1.588 J0
G2 X68.912 Y0 Z-3.009 I0.556 J1.487
G1 Y108.412 Z-3.494
X66.088 Z-3.506
Y0 Z-3.991
G2 X65.064 Y-1.484 Z-4 I-1.588 J0
G3 X66.088 Y0 I-0.564 J1.484
G1 Y108.412
X68.912
Y0
G3 X69.944 Y-1.487 I1.588 J0
G2 X68.912 Y0 Z-4.009 I0.556 J1.487
G1 Y108.412 Z-4.494
X66.088 Z-4.506
Y0 Z-4.991
G2 X65.064 Y-1.484 Z-5 I-1.588 J0
G3 X66.088 Y0 I-0.564 J1.484
G1 Y108.412
X68.912
Y0
G3 X69.944 Y-1.487 I1.588 J0
G2 X68.912 Y0 Z-5.009 I0.556 J1.487
G1 Y108.412 Z-5.494
X66.088 Z-5.506
Y0 Z-5.991
G2 X65.064 Y-1.484 Z-6 I-1.588 J0
G3 X66.088 Y0 I-0.564 J1.484
G1 Y108.412
X68.912
Y0
G3 X69.944 Y-1.487 I1.588 J0
G2 X68.912 Y0 Z-6.009 I0.556 J1.487
G1 Y108.412 Z-6.494
X66.088 Z-6.506
Y0 Z-6.991
G2 X65.064 Y-1.484 Z-7 I-1.588 J0
G3 X66.088 Y0 I-0.564 J1.484
G1 Y108.412
X68.912
Y0
G3 X69.944 Y-1.487 I1.588 J0
G1 X71.431 Y-2.043
G0 Z5
X-69.948 Y-1.488
G1 Z2 F500
Z-1
X-69.936 Y-1.484
G3 X-68.912 Y0 I-0.564 J1.484
G1 Y108.412
X-66.088
Y0
G3 X-65.056 Y-1.487 I1.588 J0
G2 X-66.088 Y0 Z-1.009 I0.556 J1.487
G1 Y108.412 Z-1.494
X-68.912 Z-1.506
Y0 Z-1.991
G2 X-69.936 Y-1.484 Z-2 I-1.588 J0
G3 X-68.912 Y0 I-0.564 J1.484
G1 Y108.412
X-66.088
Y0
G3 X-65.056 Y-1.487 I1.588 J0
G2 X-66.088 Y0 Z-2.009 I0.556 J1.487
G1 Y108.412 Z-2.494
X-68.912 Z-2.506
Y0 Z-2.991
G2 X-69.936 Y-1.484 Z-3 I-1.588 J0
G3 X-68.912 Y0 I-0.564 J1.484
G1 Y108.412
X-66.088
Y0
G3 X-65.056 Y-1.487 I1.588 J0
G2 X-66.088 Y0 Z-3.009 I0.556 J1.487
G1 Y108.412 Z-3.494
X-68.912 Z-3.506
Y0 Z-3.991
G2 X-69.936 Y-1.484 Z-4 I-1.588 J0
G3 X-68.912 Y0 I-0.564 J1.484
G1 Y108.412
X-66.088
Y0
G3 X-65.056 Y-1.487 I1.588 J0
G2 X-66.088 Y0 Z-4.009 I0.556 J1.487
G1 Y108.412 Z-4.494
X-68.912 Z-4.506
Y0 Z-4.991
G2 X-69.936 Y-1.484 Z-5 I-1.588 J0
G3 X-68.912 Y0 I-0.564 J1.484
G1 Y108.412
X-66.088
Y0
G3 X-65.056 Y-1.487 I1.588 J0
G2 X-66.088 Y0 Z-5.009 I0.556 J1.487
G1 Y108.412 Z-5.494
X-68.912 Z-5.506
Y0 Z-5.991
G2 X-69.936 Y-1.484 Z-6 I-1.588 J0
G3 X-68.912 Y0 I-0.564 J1.484
G1 Y108.412
X-66.088
Y0
G3 X-65.056 Y-1.487 I1.588 J0
G2 X-66.088 Y0 Z-6.009 I0.556 J1.487
G1 Y108.412 Z-6.494
X-68.912 Z-6.506
Y0 Z-6.991
G2 X-69.936 Y-1.484 Z-7 I-1.588 J0
G3 X-68.912 Y0 I-0.564 J1.484
G1 Y108.412
X-66.088
Y0
G3 X-65.056 Y-1.487 I1.588 J0
G1 X-63.569 Y-2.043
G0 Z10
M5
M30
